app/images/icons/preference-2.svg

<svg xmlns="http://www.w3.org/2000/svg" fill="none" viewBox="0 0 80 80"><defs/><path fill="#CA6D38" d="M32.5001 49.3752h-17.5c-.3455 0-.6251.2809-.6251.6251v4.9999c0 .3468.2796.6251.6251.6251h17.5c.3454 0 .625-.2783.6249-.6251v-4.9999c0-.3442-.2795-.6251-.6249-.6251zm-.6251 5.0001H15.6251v-3.7499H31.875v3.7499zM65.0001 16.8749H47.4999c-.3453 0-.6249.2796-.6249.625 0 .3455.2796.6249.6249.6249h17.5c.3455 0 .6251-.2794.6251-.6249 0-.3454-.2795-.625-.6249-.625z"/><path fill="#CA6D38" d="M65.4416 17.0579c-.2441-.2442-.6394-.2442-.8837 0l-32.5 32.5007c-.244.244-.244.6394 0 .8836.1222.1221.2821.1833.442.1833s.3198-.0612.442-.1833l32.4997-32.5006c.2443-.2441.2441-.6394 0-.8837zM65.4416 22.0592c-.2441-.2443-.6394-.2443-.8837 0l-32.5 32.4993c-.244.2441-.244.6396 0 .8839.1222.1219.2821.183.442.183s.3198-.061.4417-.183l32.5-32.4996c.2443-.244.2441-.6394 0-.8836zM47.9419 17.0579c-.2441-.2442-.6396-.2442-.8839 0L14.5582 49.5586c-.2443.244-.2443.6394 0 .8836.122.1221.2819.1833.4418.1833.1599 0 .32-.0612.442-.1833l32.4999-32.5006c.244-.2441.244-.6394 0-.8837z"/><path fill="#CA6D38" d="M65.0001 16.8746c-.3455 0-.6251.2796-.6251.6251v5.0012c0 .3454.2796.625.6251.625.3454 0 .6249-.2796.6249-.625v-5.0012c0-.3455-.2795-.6251-.6249-.6251zM42.8833 39.508c-.0343-.0269-3.2922-2.4849-7.0758 1.3011l-8.7495 8.7495.8838.8836 8.7493-8.7499c2.9829-2.9815 5.3314-1.2695 5.4255-1.1982.2735.2142.6666.1635.8765-.1092.2125-.2727.1635-.6651-.1098-.8769zM36.0669 24.5591c-.2442-.2442-.6396-.2442-.8838 0l-3.75 3.75c-.2443.2441-.2443.6396 0 .8839.122.122.2819.183.4418.183.16 0 .3198-.061.442-.183l3.75-3.7502c.2441-.2439.2441-.6394 0-.8837zM18.1252 56.8754H.625139c-.34546 0-.62489486.2807-.62489486.625v5c0 .3467.27943486.6249.62489486.6249H18.1252c.3454 0 .625-.2784.625-.6249v-5c0-.3443-.2796-.625-.625-.625zm-.6251 4.9998H1.25019v-3.75H17.5001v3.75z"/><path fill="#CA6D38" d="M37.5024 24.3723h-4.3775c-.3455 0-.6249.2794-.6249.6249 0 .3455.2794.6251.6249.6251h4.3775c.3455 0 .6251-.2796.6251-.6251s-.2796-.6249-.6251-.6249zM23.5278 57.0976c-.244-.2442-.6394-.2442-.8836 0l-4.961 4.961c-.2443.2441-.2443.6394 0 .8837.122.122.2821.183.4418.183.1599 0 .3198-.061.4418-.183l4.961-4.961c.2443-.2441.2441-.6395 0-.8837z"/><path fill="#CA6D38" d="M33.5669 24.5578c-.2441-.2442-.6395-.2442-.8837 0L.183174 57.0584c-.2442319.2441-.2442319.6396 0 .8839.122037.1219.281938.183.441838.183.159901 0 .319801-.0611.441838-.183L33.5669 25.4415c.2442-.2439.2442-.6395 0-.8837zM46.8751 56.8754h-17.5c-.3455 0-.6251.2807-.6251.625v5c0 .3467.2796.6249.6251.6249h17.4998c.3455 0 .6251-.2784.6251-.6249v-5c0-.3443-.2795-.625-.6249-.625zm-.6251 4.9998H29.9999v-3.75H46.25v3.75zM79.375 24.3748H65.0062c-.3457 0-.6251.2794-.6251.6249 0 .3454.2794.625.6251.625H79.375c.3454 0 .6249-.2796.6249-.625 0-.3455-.2795-.6249-.6249-.6249z"/><path fill="#CA6D38" d="M79.8169 24.5578c-.2441-.2442-.6395-.2442-.8837 0l-32.5 32.5006c-.2443.2441-.2443.6396 0 .8839.122.1219.2821.183.4418.183.1601 0 .3198-.0611.442-.183l32.4999-32.5008c.2442-.2439.244-.6395 0-.8837zM79.8169 29.559c-.2441-.244-.6395-.244-.8837 0l-32.5 32.4996c-.2443.244-.2443.6394 0 .8836.122.1221.2821.1831.4418.1831.1601 0 .3198-.061.442-.1831l32.4999-32.4993c.2442-.2441.2442-.6396 0-.8839z"/><path fill="#CA6D38" d="M79.375 24.3748c-.3454 0-.6249.2794-.6249.6249v5.0013c0 .3455.2795.6249.6249.6249.3455 0 .6249-.2794.6249-.6249v-5.0013c0-.3455-.2794-.6249-.6249-.6249zM41.0668 52.0585c-.2441-.2442-.6396-.2442-.8838 0l-4.9999 5c-.2443.2441-.2443.6396 0 .8838.122.1219.282.1831.4418.1831.16 0 .3199-.0612.4418-.1831l5.0001-5.0001c.2442-.2439.2441-.6394 0-.8837zM51.067 48.3085c-.2441-.2442-.6396-.2442-.8839 0l-8.7499 8.7475c-.2443.2441-.2443.6396 0 .8838.1219.1219.2819.1831.4418.1831.1599 0 .3198-.0612.4419-.1831l8.7501-8.7476c.244-.2441.244-.6394 0-.8837zM67.2657 24.6117c-.244-.2442-.6394-.2436-.8836-.0006l-5.3395 5.3387.8837.8837 5.3394-5.3375c.2443-.244.2441-.64 0-.8843zM52.3192 17.0579c-.2441-.2442-.6394-.2442-.8837 0l-6.2511 6.2524c-.2442.2441-.2442.6395 0 .8837.122.122.2819.1832.4418.1832.1599 0 .3198-.061.4419-.1832l6.2511-6.2524c.2442-.2441.2441-.6394 0-.8837zM58.5669 17.0579c-.2441-.2442-.6394-.2442-.8837 0L45.1844 29.5566c-.2442.2441-.2442.6396 0 .8838.122.1221.2819.1831.4418.1831.1599 0 .3198-.0609.4419-.1831l12.4988-12.4988c.2442-.2441.2441-.6394 0-.8837z"/><circle cx="64" cy="56" r="14.45" fill="#fff" stroke="#CA6D38" stroke-width="1.1"/><path stroke="#CA6D38" stroke-width="1.1" d="M58 56l4 4 8-8"/></svg>

<svg width="80" height="80" viewBox="0 0 80 80" fill="none" xmlns="http://www.w3.org/2000/svg">
<path d="M32.5001 49.3752H15.0001C14.6546 49.3752 14.375 49.6561 14.375 50.0003V55.0002C14.375 55.347 14.6546 55.6253 15.0001 55.6253H32.5001C32.8455 55.6253 33.1251 55.347 33.125 55.0002V50.0003C33.125 49.6561 32.8455 49.3752 32.5001 49.3752ZM31.875 54.3753H15.6251V50.6254H31.875V54.3753Z" fill="#CA6D38"/>
<path d="M65.0001 16.8749H47.4999C47.1546 16.8749 46.875 17.1545 46.875 17.4999C46.875 17.8454 47.1546 18.1248 47.4999 18.1248H64.9999C65.3454 18.1248 65.625 17.8454 65.625 17.4999C65.625 17.1545 65.3455 16.8749 65.0001 16.8749Z" fill="#CA6D38"/>
<path d="M65.4416 17.0579C65.1975 16.8137 64.8022 16.8137 64.5579 17.0579L32.0579 49.5586C31.8139 49.8026 31.8139 50.198 32.0579 50.4422C32.1801 50.5643 32.34 50.6255 32.4999 50.6255C32.6598 50.6255 32.8197 50.5643 32.9419 50.4422L65.4416 17.9416C65.6859 17.6975 65.6857 17.3022 65.4416 17.0579Z" fill="#CA6D38"/>
<path d="M65.4416 22.0592C65.1975 21.8149 64.8022 21.8149 64.5579 22.0592L32.0579 54.5585C31.8139 54.8026 31.8139 55.1981 32.0579 55.4424C32.1801 55.5643 32.34 55.6254 32.4999 55.6254C32.6598 55.6254 32.8197 55.5644 32.9416 55.4424L65.4416 22.9428C65.6859 22.6988 65.6857 22.3034 65.4416 22.0592Z" fill="#CA6D38"/>
<path d="M47.9419 17.0579C47.6978 16.8137 47.3023 16.8137 47.058 17.0579L14.5582 49.5586C14.3139 49.8026 14.3139 50.198 14.5582 50.4422C14.6802 50.5643 14.8401 50.6255 15 50.6255C15.1599 50.6255 15.32 50.5643 15.442 50.4422L47.9419 17.9416C48.1859 17.6975 48.1859 17.3022 47.9419 17.0579Z" fill="#CA6D38"/>
<path d="M65.0001 16.8746C64.6546 16.8746 64.375 17.1542 64.375 17.4997V22.5009C64.375 22.8463 64.6546 23.1259 65.0001 23.1259C65.3455 23.1259 65.625 22.8463 65.625 22.5009V17.4997C65.625 17.1542 65.3455 16.8746 65.0001 16.8746Z" fill="#CA6D38"/>
<path d="M42.8833 39.508C42.849 39.4811 39.5911 37.0231 35.8075 40.8091L27.058 49.5586L27.9418 50.4422L36.6911 41.6923C39.674 38.7108 42.0225 40.4228 42.1166 40.4941C42.3901 40.7083 42.7832 40.6576 42.9931 40.3849C43.2056 40.1122 43.1566 39.7198 42.8833 39.508Z" fill="#CA6D38"/>
<path d="M36.0669 24.5591C35.8227 24.3149 35.4273 24.3149 35.1831 24.5591L31.4331 28.3091C31.1888 28.5532 31.1888 28.9487 31.4331 29.193C31.5551 29.315 31.715 29.376 31.8749 29.376C32.0349 29.376 32.1947 29.315 32.3169 29.193L36.0669 25.4428C36.311 25.1989 36.311 24.8034 36.0669 24.5591Z" fill="#CA6D38"/>
<path d="M18.1252 56.8754H0.625139C0.279679 56.8754 0.000244141 57.1561 0.000244141 57.5004V62.5004C0.000244141 62.8471 0.279679 63.1253 0.625139 63.1253H18.1252C18.4706 63.1253 18.7502 62.8469 18.7502 62.5004V57.5004C18.7502 57.1561 18.4706 56.8754 18.1252 56.8754ZM17.5001 61.8752H1.25019V58.1252H17.5001V61.8752Z" fill="#CA6D38"/>
<path d="M37.5024 24.3723H33.1249C32.7794 24.3723 32.5 24.6517 32.5 24.9972C32.5 25.3427 32.7794 25.6223 33.1249 25.6223H37.5024C37.8479 25.6223 38.1275 25.3427 38.1275 24.9972C38.1275 24.6517 37.8479 24.3723 37.5024 24.3723Z" fill="#CA6D38"/>
<path d="M23.5278 57.0976C23.2838 56.8534 22.8884 56.8534 22.6442 57.0976L17.6832 62.0586C17.4389 62.3027 17.4389 62.698 17.6832 62.9423C17.8052 63.0643 17.9653 63.1253 18.125 63.1253C18.2849 63.1253 18.4448 63.0643 18.5668 62.9423L23.5278 57.9813C23.7721 57.7372 23.7719 57.3418 23.5278 57.0976Z" fill="#CA6D38"/>
<path d="M33.5669 24.5578C33.3228 24.3136 32.9274 24.3136 32.6832 24.5578L0.183174 57.0584C-0.0610579 57.3025 -0.0610579 57.698 0.183174 57.9423C0.305211 58.0642 0.465112 58.1253 0.625012 58.1253C0.784913 58.1253 0.944813 58.0642 1.06685 57.9423L33.5669 25.4415C33.8111 25.1976 33.8111 24.802 33.5669 24.5578Z" fill="#CA6D38"/>
<path d="M46.8751 56.8754H29.3751C29.0296 56.8754 28.75 57.1561 28.75 57.5004V62.5004C28.75 62.8471 29.0296 63.1253 29.3751 63.1253H46.8749C47.2204 63.1253 47.5 62.8469 47.5 62.5004V57.5004C47.5 57.1561 47.2205 56.8754 46.8751 56.8754ZM46.25 61.8752H29.9999V58.1252H46.25V61.8752Z" fill="#CA6D38"/>
<path d="M79.375 24.3748H65.0062C64.6605 24.3748 64.3811 24.6542 64.3811 24.9997C64.3811 25.3451 64.6605 25.6247 65.0062 25.6247H79.375C79.7204 25.6247 79.9999 25.3451 79.9999 24.9997C79.9999 24.6542 79.7204 24.3748 79.375 24.3748Z" fill="#CA6D38"/>
<path d="M79.8169 24.5578C79.5728 24.3136 79.1774 24.3136 78.9332 24.5578L46.4332 57.0584C46.1889 57.3025 46.1889 57.698 46.4332 57.9423C46.5552 58.0642 46.7153 58.1253 46.875 58.1253C47.0351 58.1253 47.1948 58.0642 47.317 57.9423L79.8169 25.4415C80.0611 25.1976 80.0609 24.802 79.8169 24.5578Z" fill="#CA6D38"/>
<path d="M79.8169 29.559C79.5728 29.315 79.1774 29.315 78.9332 29.559L46.4332 62.0586C46.1889 62.3026 46.1889 62.698 46.4332 62.9422C46.5552 63.0643 46.7153 63.1253 46.875 63.1253C47.0351 63.1253 47.1948 63.0643 47.317 62.9422L79.8169 30.4429C80.0611 30.1988 80.0611 29.8033 79.8169 29.559Z" fill="#CA6D38"/>
<path d="M79.375 24.3748C79.0296 24.3748 78.7501 24.6542 78.7501 24.9997V30.001C78.7501 30.3465 79.0296 30.6259 79.375 30.6259C79.7205 30.6259 79.9999 30.3465 79.9999 30.001V24.9997C79.9999 24.6542 79.7205 24.3748 79.375 24.3748Z" fill="#CA6D38"/>
<path d="M41.0668 52.0585C40.8227 51.8143 40.4272 51.8143 40.183 52.0585L35.1831 57.0585C34.9388 57.3026 34.9388 57.6981 35.1831 57.9423C35.3051 58.0642 35.4651 58.1254 35.6249 58.1254C35.7849 58.1254 35.9448 58.0642 36.0667 57.9423L41.0668 52.9422C41.311 52.6983 41.3109 52.3028 41.0668 52.0585Z" fill="#CA6D38"/>
<path d="M51.067 48.3085C50.8229 48.0643 50.4274 48.0643 50.1831 48.3085L41.4332 57.056C41.1889 57.3001 41.1889 57.6956 41.4332 57.9398C41.5551 58.0617 41.7151 58.1229 41.875 58.1229C42.0349 58.1229 42.1948 58.0617 42.3169 57.9398L51.067 49.1922C51.311 48.9481 51.311 48.5528 51.067 48.3085Z" fill="#CA6D38"/>
<path d="M67.2657 24.6117C67.0217 24.3675 66.6263 24.3681 66.3821 24.6111L61.0426 29.9498L61.9263 30.8335L67.2657 25.496C67.51 25.252 67.5098 24.856 67.2657 24.6117Z" fill="#CA6D38"/>
<path d="M52.3192 17.0579C52.0751 16.8137 51.6798 16.8137 51.4355 17.0579L45.1844 23.3103C44.9402 23.5544 44.9402 23.9498 45.1844 24.194C45.3064 24.316 45.4663 24.3772 45.6262 24.3772C45.7861 24.3772 45.946 24.3162 46.0681 24.194L52.3192 17.9416C52.5634 17.6975 52.5633 17.3022 52.3192 17.0579Z" fill="#CA6D38"/>
<path d="M58.5669 17.0579C58.3228 16.8137 57.9275 16.8137 57.6832 17.0579L45.1844 29.5566C44.9402 29.8007 44.9402 30.1962 45.1844 30.4404C45.3064 30.5625 45.4663 30.6235 45.6262 30.6235C45.7861 30.6235 45.946 30.5626 46.0681 30.4404L58.5669 17.9416C58.8111 17.6975 58.811 17.3022 58.5669 17.0579Z" fill="#CA6D38"/>
<circle cx="64" cy="56" r="14.45" fill="white" stroke="#CA6D38" stroke-width="1.1"/>
<path d="M58 56L62 60L70 52" stroke="#CA6D38" stroke-width="1.1"/>
</svg>
